dist/assets/images/payment/apple-pay.svg

<svg width="50" height="34" viewBox="0 0 50 34" fill="none" xmlns="http://www.w3.org/2000/svg">
<path d="M0 4.25C0 1.90279 1.86548 0 4.16667 0H45.8333C48.1345 0 50 1.90279 50 4.25V29.75C50 32.0972 48.1345 34 45.8333 34H4.16667C1.86548 34 0 32.0972 0 29.75V4.25Z" fill="#1E4D51"/>
<path d="M38.7608 26.6992C40.6812 26.6992 41.5851 25.9518 42.3746 23.6862L45.8333 13.7912H43.8308L41.5114 21.4466H41.4707L39.1514 13.8016H37.092L40.4288 23.2197L40.2501 23.7925C40.1238 24.6125 39.4021 25.1975 38.5897 25.137C38.4347 25.137 38.134 25.1206 38.012 25.1041V26.6594C38.2602 26.694 38.5109 26.7104 38.7608 26.7095V26.6992ZM32.0874 21.7439C31.0369 21.7439 30.3703 21.2254 30.3703 20.4409C30.3703 19.6278 31.0132 19.1543 32.2424 19.0791L34.4313 18.9383V19.6693C34.383 20.8738 33.386 21.8113 32.2051 21.762C32.1653 21.7603 32.1263 21.7568 32.0874 21.7534V21.7439ZM31.5588 23.2793C32.7506 23.3121 33.8654 22.6788 34.4643 21.6272H34.505V23.1825H36.328V16.741C36.328 14.873 34.8633 13.6694 32.6083 13.6694C30.5168 13.6694 28.97 14.8894 28.9132 16.5665H30.6879C30.8997 15.7137 31.6943 15.1512 32.5516 15.2462C33.7561 15.2462 34.4313 15.8191 34.4313 16.8732V17.5869L31.9747 17.7364C29.6875 17.8773 28.4507 18.832 28.4507 20.4927C28.449 22.1768 29.7265 23.2888 31.5579 23.2888L31.5588 23.2793ZM20.9945 11.9318H23.2648C24.9742 11.9318 25.9509 12.8615 25.9509 14.4971C25.9509 16.1327 24.9742 17.0702 23.2571 17.0702H20.9945V11.9318ZM19.025 10.2382V23.1799H20.9945V18.7681H23.7213C25.9425 18.8899 27.8391 17.1523 27.9586 14.8868C27.9653 14.7581 27.9662 14.6302 27.9611 14.5014C28.0661 12.261 26.3711 10.3583 24.1745 10.2503C24.0449 10.2443 23.9162 10.2451 23.7866 10.2512L19.025 10.2382ZM12.4879 12.6532C11.3562 12.5867 10.3879 13.309 9.85085 13.309C9.31378 13.309 8.48362 12.6869 7.58823 12.7042C6.40228 12.7353 5.32137 13.405 4.74788 14.4643C3.52721 16.6062 4.43022 19.7773 5.61024 21.5201C6.18796 22.3841 6.8809 23.3303 7.79153 23.2966C8.65389 23.2637 8.99611 22.7237 10.0381 22.7237C11.08 22.7237 11.3892 23.2966 12.3007 23.2793C13.2443 23.2629 13.839 22.4152 14.4184 21.5512C14.8267 20.9394 15.1444 20.2698 15.3621 19.5639C14.2499 19.0679 13.529 17.9507 13.523 16.7125C13.54 15.6204 14.1008 14.6129 15.0123 14.04C14.4311 13.1984 13.4985 12.6817 12.4896 12.6455L12.4879 12.6532ZM11.7814 11.5101C11.2858 12.1469 10.5277 12.5124 9.73056 12.4977C9.67973 11.7045 9.94403 10.9243 10.4633 10.3315C10.98 9.7198 11.7085 9.33616 12.4964 9.26099C12.5523 10.0766 12.2956 10.8819 11.7797 11.5075" fill="white"/>
</svg>

<svg width="50" height="34" fill="none" xmlns="http://www.w3.org/2000/svg"><path d="M0 4.25C0 1.903 1.865 0 4.167 0h41.666C48.135 0 50 1.903 50 4.25v25.5c0 2.347-1.865 4.25-4.167 4.25H4.167C1.865 34 0 32.097 0 29.75V4.25z" fill="#1E4D51"/><path d="M38.76 26.7c1.921 0 2.825-.748 3.615-3.014l3.458-9.895h-2.002l-2.32 7.656h-.04l-2.32-7.645h-2.059l3.337 9.418-.179.573a1.573 1.573 0 01-1.66 1.344 5.92 5.92 0 01-.578-.033v1.555c.248.035.499.051.749.05v-.01zm-6.673-4.956c-1.05 0-1.717-.519-1.717-1.303 0-.813.643-1.287 1.872-1.362l2.19-.14v.73c-.049 1.205-1.046 2.142-2.227 2.093a2.255 2.255 0 01-.118-.009v-.01zm-.528 1.535a3.245 3.245 0 002.905-1.652h.041v1.556h1.823V16.74c0-1.868-1.465-3.072-3.72-3.072-2.091 0-3.638 1.22-3.695 2.898h1.775a1.732 1.732 0 011.864-1.32c1.204 0 1.88.572 1.88 1.626v.714l-2.457.15c-2.288.14-3.524 1.095-3.524 2.756-.002 1.684 1.276 2.796 3.107 2.796v-.01zM20.994 11.932h2.27c1.71 0 2.687.93 2.687 2.565 0 1.636-.977 2.573-2.694 2.573h-2.263v-5.138zm-1.969-1.694V23.18h1.97v-4.412h2.726c2.221.122 4.118-1.616 4.238-3.881.006-.129.007-.257.002-.386.105-2.24-1.59-4.143-3.787-4.25a4.147 4.147 0 00-.387 0l-4.762-.013zm-6.537 2.415c-1.132-.066-2.1.656-2.637.656-.537 0-1.367-.622-2.263-.605a3.335 3.335 0 00-2.84 1.76c-1.22 2.142-.318 5.313.862 7.056.578.864 1.27 1.81 2.182 1.777.862-.033 1.204-.573 2.246-.573s1.351.573 2.263.555c.943-.016 1.538-.864 2.117-1.728a7.63 7.63 0 00.944-1.987 3.131 3.131 0 01-1.839-2.852 3.211 3.211 0 011.49-2.672 3.208 3.208 0 00-2.523-1.394l-.002.007zm-.707-1.143a2.54 2.54 0 01-2.05.988 2.998 2.998 0 01.732-2.166 3.04 3.04 0 012.033-1.071 3.19 3.19 0 01-.716 2.247" fill="#fff"/></svg>
